X:1
T:Title
%%score { ( 1 3 ) | ( 2 4 ) }
L:1/8
Q:1/4=110
M:3/4
K:Eb
V:1 treble nm="Grand Piano"
V:3 treble 
V:2 bass 
V:4 bass 
V:1
 E2 G2 B2 | [Ge]2 [Bd]2 [Ac]2 | [GB]2 E2 F2 | G6 | G2 G2 G2 | B4 G2 | [DF]6- | [DF]4 z2 | %8
w: J.~M.~Black * *||||||||
 E2 G2 B2 | [Ge]2 [Bd]2 [Ac]2 | [GB]2 E2 F2 | G6 | F2 c2 ce | d4 c2 | [DB]6- | [DB]4 z2 | %16
w: ||||||||
 [DB]2 [Dc]2 [DB]2 | [DB]2 [DF]2 [EG]2 | [FA]2 [GB]2 [FA]2 | [EG]6 | [DB]2 [Dc]2 [DB]2 | %21
w: |||||
 [DB]2 [DF]2 [EG]2 | [FA]2 [GB]2 [FA]2 | G6 | E2 G2 B2 | [Ge]2 d2 e2 | F2 G2 A2 | d4 z2 | %28
w: |||||||
 [B,GB]2 [EGB]2 [CFA]2 | [B,EG]4 [A,DF]2 | [G,E]6- | [G,E]4 z2 | B2 B2 c2 | B6- | B6- | B4 z2 | %36
w: ||||||||
 G2 F2 E2 | B6- | B6- | B4 z2 | [GB]2 [_G=A]2 [=GB]2 | [Ge]2 d2 e2 | F2 G2 A2 | d4 z2 | %44
w: ||||||||
 [B,GB]2 [EGB]2 [CFA]2 | [B,EG]4 [A,DF]2 | [G,E]6- | [G,E]4 z2 |] %48
w: ||||
V:2
 [E,G,]2 [E,B,E]2 [E,G,E]2 | [E,B,]2 [E,E]2 [E,E]2 | [E,E]2 [E,G,]2 [E,A,E]2 | [E,B,E]6 | %4
 [E,B,E]2 [E,B,E]2 [E,B,E]2 | [E,G,E]4 [E,B,E]2 | [B,,B,]6- | [B,,B,]4 z2 | %8
 [E,G,]2 [E,B,E]2 [E,G,E]2 | [E,B,]2 [E,E]2 [E,E]2 | [E,E]2 [E,G,]2 [E,A,E]2 | [E,B,E]6 | %12
 [F,=A,E]2 [F,A,E]2 [F,A,F]2 | [F,B,F]4 [F,=A,E]2 | [B,,B,]6- | [B,,B,]4 z2 | %16
 [B,,F,]2 [B,,F,]2 [B,,F,]2 | [B,,B,]2 [B,,B,]2 [B,,B,]2 | [B,,B,]4 [D,B,]2 | [E,B,]6 | %20
 [B,,B,]2 [B,,A,]2 [B,,F,]2 | [B,,F,]2 [B,,B,]2 [B,,B,]2 | [B,,B,]2 [B,,B,]2 [B,,B,]2 | [E,B,E]6 | %24
 [E,G,]2 [E,B,E]2 [E,G,E]2 | [E,B,]2 [F,B,F]2 [G,B,E]2 | [A,B,D]2 [G,B,E]2 [F,B,F]2 | %27
 z2 z2[K:treble] c2 | E,2 E,2 A,,2 | B,,4 B,,2 | E,6- | E,4 z2 | z6 | z6 | %34
 [E,B,]2 [A,B,]2 [G,B,]2 | [F,B,]4 z2 | z6 | z6 | [B,,F,]2 [C,B,]2 [D,B,]2 | [E,B,]4 z2 | %40
 [E,E]2 [E,E]2 [E,E]2 | [E,B,]2 [F,B,F]2 [G,B,E]2 | [A,B,D]2 [G,B,E]2 [F,B,F]2 | %43
 z2 z2[K:treble] c2 | E,2 E,2 A,,2 | B,,4 B,,2 | E,6- | E,4 z2 |] %48
V:3
 x6 | x6 | x6 | x6 | x6 | x6 | x6 | x6 | x6 | x6 | x6 | x6 | x6 | x6 | x6 | x6 | x6 | x6 | x6 | %19
 x6 | x6 | x6 | x6 | x6 | x6 | x6 | x6 | A6 | x6 | x6 | x6 | x6 | x6 | x6 | G2 F2 E2 | D4 z2 | x6 | %37
 x6 | D2 E2 F2 | G4 z2 | x6 | x6 | x6 | A6 | x6 | x6 | x6 | x6 |] %48
V:4
 x6 | x6 | x6 | x6 | x6 | x6 | x6 | x6 | x6 | x6 | x6 | x6 | x6 | x6 | x6 | x6 | x6 | x6 | x6 | %19
 x6 | x6 | x6 | x6 | x6 | x6 | x6 | x6 | [B,,B,]6[K:treble] | x6 | x6 | x6 | x6 | x6 | x6 | x6 | %35
 x6 | x6 | x6 | x6 | x6 | x6 | x6 | x6 | [B,,B,]6[K:treble] | x6 | x6 | x6 | x6 |] %48

